!!!!SEGMENT: pl-kk--kk-i-389--003-007_anonim--missa-no-3-agnus.krn
!!!cenid: 17xx:2474
!!!COM: Anonim
!!!COM-rismID: pe30004985
!!!CDT:
!!!CNT:
!!!OPR: [Missa] No. 3.
!!!OTL: Agnus
!!!OMV: 007
!!!PDT:
!!!AGN: Sacred; Mass
!!!YEC: Copyright 2022 Narodowy Instytut Fryderyka Chopina (https://polishscores.org)
!!!YEM: License CC-BY-4.0 (https://creativecommons.org/licenses/by/4.0)
!!!SMS-siglum: PL-Kk
!!!SMS-shelfmark: Kk.I.389
!!!SMS-variant:
!!!SMS-altvar:
!!!SMS-shelfwork: 003-007 M
!!!NIFC-rismSourceID: 1001146182
!!!NIFC-rismChildID: 1001146400
!!!NIFC-islandoraID: pl-kk:6976
!!!URL-pdf-islandora: https://repozytorium.nifc.pl/islandora/object/pl-kk%3A6976/datastream/PDF/view
!!!URL-scan: https://polish.musicsources.pl/pl/lokalizacje/galeria/rekopisy/5999/1 @EN{Scan on Polish Music Sources Website} @PL{Skany w portalu Dziedzictwo Muzyki Polskiej w otwartym dostępie}
!!!IIIF:
!!!ONB-nifc: UWAGA: S – skan 6-7, A – 25-26 , T – 44-45 , B – 63-64 . Części Mszy: Rorate, Kyrie, Gloria, Graduale, Sanctus, Benedictus, Agnus, Dona
!!!AIN: 1 alto 1 bass 1 soprn 1 tenor
!!!key: F
**kern	**text	**kern	**text	**kern	**text	**kern	**text
*part4	*part4	*part3	*part3	*part2	*part2	*part1	*part1
*staff4	*staff4	*staff3	*staff3	*staff2	*staff2	*staff1	*staff1
*I"Basso.	*	*I"Tenore.	*	*I"Alto.	*	*I"Soprano.	*
*I'[B]	*	*I'[T]	*	*I'[A]	*	*I'[S]	*
*ICvox	*	*ICvox	*	*ICvox	*	*ICvox	*
*Ibass	*	*Itenor	*	*Ialto	*	*Isoprn	*
*clefF4	*	*clefC4	*	*clefC3	*	*clefC1	*
*k[b-]	*	*k[b-]	*	*k[b-]	*	*k[b-]	*
*F:	*	*F:	*	*F:	*	*F:	*
*M3/2	*	*M3/2	*	*M3/2	*	*M3/2	*
=1	=1	=1	=1	=1	=1	=1	=1
!!LO:TX:t=P:problem:all\right	!	!	!	!	!	!	!	!	!	!	!	!	!	!
*	*	*2\right	*	*2\right	*	*	*
1F	A-	2A\	A-	2f\	A-	1cc	A-
.	.	4c\	.	4a\	.	.	.
.	.	4A\	.	4f\	.	.	.
*	*	*	*	*	*	*2\right	*
2C/	-gnus	4d\	.	4b-\	.	2g\	-gnus
.	.	4B-\	-gnus	4g\	-gnus	.	.
=2	=2	=2	=2	=2	=2	=2	=2
*2\right	*	*	*	*	*	*	*
2F\	De-	2A\	De-	2f\	De-	2cc\	De-
2C/	.	2G/	.	2e\	-i	2cc\	-i
4FF/	-i	4A\	-i	2f\	qui	2cc\	qui
4F\	qui	4A\	qui	.	.	.	.
=3	=3	=3	=3	=3	=3	=3	=3
2C/	tol-	4B-\	tol-	4g\	tol-	4ee\	tol-
.	.	4A\	.	4f\	.	4cc\	.
4C/	-lis	4G\	-lis	4e\	-lis	4cc\	-lis
4C/	pec-	4B-\	pec-	4g\	pec-	4ee\	pec-
4F\	-ca-	4A\	-ca-	4f\	-ca-	4cc\	-ca-
4C/	-ta	4G\	-ta	4e\	-ta	4cc\	-ta
=4	=4	=4	=4	=4	=4	=4	=4
2F\	mun-	2A\	mun-	2f\	mun-	2cc\	mun-
2C/	-di	2c\	-di	2g\	-di	2cc\	-di
2r	.	2r	.	2r	.	2r	.
!	!	!LO:LB:g=original	!	!LO:LB:g=original	!	!	!
=5	=5	=5	=5	=5	=5	=5	=5
1F	Ag-	2A\	A-	2f\	A-	1cc	Ag-
.	.	4c\	.	4a\	.	.	.
.	.	4A\	.	4f\	.	.	.
2C/	-nus	4d\	.	4b-\	.	2g\	-nus
.	.	4B-\	-gnus	4g\	-gnus	.	.
!LO:LB:g=original	!	!	!	!	!	!LO:LB:g=original	!
=6	=6	=6	=6	=6	=6	=6	=6
2F\	De-	2A\	De-	2f\	De-	1cc	De-
2C/	.	2G/	.	2e\	.	.	.
4FF/	-i	4A\	-i	4f\	-i	4cc\	-i
4F\	qui	4A\	qui	4f\	qui	4cc\	qui
=7	=7	=7	=7	=7	=7	=7	=7
2C/	tol-	4B-\	tol-	4g\	tol-	4ee\	tol-
.	.	4A\	.	4f\	.	4cc\	.
4C/	-lis	4G\	-lis	4e\	-lis	4cc\	-lis
4C/	pec-	4B-\	pec-	4g\	pec-	4ee\	pec-
4F\	-ca-	4A\	-ca-	4f\	-ca-	4cc\	-ca-
4C/	-ta	4G\	-ta	4e\	-ta	4cc\	-ta
=8	=8	=8	=8	=8	=8	=8	=8
2F\	mun-	2A\	mun-	2f\	mun-	2cc\	mun-
2C/	-di	2c\	-di	2g\	-di	2cc\	-di
2r	.	2r	.	2r	.	2r	.
=9	=9	=9	=9	=9	=9	=9	=9
2C/	mi-	4e\	mi-	4g\	mi-	1cc	mi-
.	.	4d\	.	4f\	.	.	.
2E\	.	4c\	.	4e\	.	.	.
.	.	4B-\	-se-	4d\	.	.	.
2C/	-se-	4A\	-re-	4c/	.	2ee\	-se-
.	.	4G\	-re	4B-/	-se-	.	.
!	!	!LO:LB:g=original	!	!LO:LB:g=original	!	!	!
=10	=10	=10	=10	=10	=10	=10	=10
2F\	-re-	2F/	no-	2A/	-re-	2cc\	-re-
2C/	.	2G/	.	2B-/	.	2b-\	.
2F\	-re,	2A/	-bis,	2c/	-re	2a\	-re
=11	=11	=11	=11	=11	=11	=11	=11
2BB-/	mi-	1B-	mi-	2d\	mi-	2b-\	mi-
2C/	.	.	.	2g\	.	2cc\	.
2F\	-se-	2A\	-se-	2f\	-se-	2cc\	-se-
!LO:LB:g=original	!	!	!	!	!	!LO:LB:g=original	!
=12	=12	=12	=12	=12	=12	=12	=12
2E\	-re-	1G	-re-	1e	-re-	1b-	-re-
2C/	.	.	.	.	.	.	.
2F\	-re	2A\	-re	2f\	-re	2cc\	-re
=13	=13	=13	=13	=13	=13	=13	=13
2D\	no-	2B-\	no-	2g\	no-	2dd\	no-
1C	.	2A\	.	2f\	.	1cc	.
.	.	2G/	.	2e\	.	.	.
=14	=14	=14	=14	=14	=14	=14	=14
1FF	-bis	1A	-bis	1f	-bis,	1cc	-bis,
2r	.	2r	.	2r	.	2r	.
=15	=15	=15	=15	=15	=15	=15	=15
2C/	mi-	4e\	mi-	4g\	mi-	1cc	mi-
.	.	4d\	.	4f\	.	.	.
2E\	.	4c\	.	4e\	.	.	.
.	.	4B-\	se-	4d\	.	.	.
2C/	-se-	4A\	-re-	4c\	.	2ee\	-se-
.	.	4G\	-re	4B-/	-se-	.	.
=16	=16	=16	=16	=16	=16	=16	=16
2F\	-re-	2F/	no-	2A/	-re-	2cc\	-re-
2C/	.	2G/	.	2B-/	.	2b-\	.
2F\	-re	2A/	-bis	2c/	-re	2a\	-re
!	!	!LO:LB:g=original	!	!LO:LB:g=original	!	!	!
=17	=17	=17	=17	=17	=17	=17	=17
2BB-/	mi-	1B-	mi-	2d\	mi-	2b-\	mi-
2C/	.	.	.	2g\	.	2cc\	.
2F\	-se-	2A\	-se-	2f\	-se-	2cc\	-se-
=18	=18	=18	=18	=18	=18	=18	=18
2E\	-re-	1G	-re-	1e	-re-	1b-	-re-
2C/	.	.	.	.	.	.	.
2F\	-re	2A\	-re	2f\	-re	2cc\	-re
!LO:LB:g=original	!	!	!	!	!	!	!
=19	=19	=19	=19	=19	=19	=19	=19
2D\	no-	2B-\	no-	2g\	no-	2dd\	mi-
1C	.	2A\	.	2f\	.	2cc\	-se-
!	!	!	!	!	!	!LO:LB:g=original	!
.	.	2G/	.	2e\	.	4cc\	-re-
.	.	.	.	.	.	4cc\	-re
=20	=20	=20	=20	=20	=20	=20	=20
1FF	-bis	1.A	-bis.	1f	-bis.	2cc\	no-
.	.	.	.	.	.	1cc	-bis
2r	.	.	.	2r	.	.	.
!	!	!LO:LB:g=original	!	!LO:LB:g=original	!	!	!
=21||	=21||	=21||	=21||	=21||	=21||	=21||	=21||
*	*	*clefC4	*	*clefC3	*	*	*
*	*	*k[b-]	*	*	*	*	*
*M2/2	*	*M2/2	*	*M2/2	*	*M2/2	*
*met(C.|)	*	*met(C.|)	*	*met(C.|)	*	*met(C.|)	*
4F\	A-	4A\	A-	4f\	A-	2.cc\	Ag-
4G\	.	4B-\	.	4e\	.	.	.
4A\	.	4A\	.	4f\	.	.	.
4B-\	-gnus	8B-\L	-gnus	8g\L	-gnus	4cc\	-nus
.	.	8A\J	.	8f\J	.	.	.
=22	=22	=22	=22	=22	=22	=22	=22
4c\	De-	8A/L	De-	4e\	De-	4g\	De-
.	.	8G/J	.	.	.	.	.
4C/	-i	4G/	-i	4e\	-i	4g\	-i
4r	.	4r	.	4r	.	4r	.
4C/	qui	8G/L	qui	8e\L	qui	4g\	qui
.	.	8B-/J	.	8g\J	.	.	.
=23	=23	=23	=23	=23	=23	=23	=23
4F\	tol-	8B-\L	tol-	8g\L	tol-	4cc\	tol-
.	.	8A\J	.	8f\J	.	.	.
4F\	-lis	4A\	-lis	4f\	-lis	4cc\	-lis
4r	.	4r	.	4r	.	4r	.
4F\	pec-	4c\	pec-	4a\	pec-	4cc\	pec-
=24	=24	=24	=24	=24	=24	=24	=24
2E\	-ca-	2c\	-ca-	2b-\	-ca-	2g\	-ca-
2F\	-ta	2c\	-ta	2a\	-ta	2a\	-ta
!	!	!LO:LB:g=original	!	!	!	!LO:LB:g=original	!
=25	=25	=25	=25	=25	=25	=25	=25
2BB-/	mun-	1d	mun-	2g\	mun-	2b-\	mun-
2BBn/	.	.	.	2f\	.	2dd\	.
!	!	!	!	!LO:LB:g=original	!	!	!
=26	=26	=26	=26	=26	=26	=26	=26
1C	-di	1c	-di.	1g	-di.	1ee	-di
==	==	==	==	==	==	==	==
*-	*-	*-	*-	*-	*-	*-	*-
!!!system-decoration: [(s1,s2,s3,s4)]
!!!ENC: Andrzej Gręziak
!!!END: 2023-11-06
!!!EED: Jan Barakat
!!!EEV: 2023-11-29
